X:175
T:Wind That Blows the Barley Down,The. JGi.175
M:C|
L:1/8
Q:1/4=140
S:Joshua Gibbons MS,1823,Tealby,Lincs.
R:reel
O:Tealby,Lincolnshire
Z:VMP/R.Greig, 2009
K:D
A3B AFDF|B2BAB2d2|A3B AFDf|gfed B2d2:|
|:f2fdg2ge|f2fd cecA|f2fdg2ge|afedB2d2|
fefd gfge|fefd cecA|fafd gbge|d2d2d2:|

